X: 13
T:Ternberger Hochzeitsstckl #1, Pichler/Fritz: "Wer tanzt nach meiner Pfeife"
M:2/4
L:1/16
C:trad
S: Simon Wascher
K:G
dedc BcdB|cdcB ABcA|B2BA G2FG|ABAG F2D2
|dedc BcdB|cdcB ABcA|B2AG FGAF|G2B2 G4   :|
|:D2B2 D2B2|c2cB c4   |B2BA G2FG|ABAF D4 
|D2B2 D2B2 |c2cB c4   |B2AG FGAF|G2B2 G4   :|
